X: 1
T: String Quartet in C Major opus 76 no 3 mvt 3
C: Franz Joseph Haydn
%%abc-version 2.0
%%abcx-abcm2ps-target-version 5.9.1 (29 Sep 2008)
%%abc-creator hum2abc beta
%%abcx-conversion-date 2021/02/14 14:38:31
%%abc-copyright Copyright (c) 1994, 2000 Center for Computer Assisted Research in the Humanities
%%abc-edited-by Frances Bennion
%%abcx-initial-encoding-date 1997/04/15
%%gracespace 0 6 6
%%humdrum-veritas 1997299852
%%humdrum-veritas-data 217628512
%%linebreak <none>
%%barnumbers 0
L: 1/4
M: 3/4
N: Derived from op76n3-03.krn
Q: "Menuetto: Allegro"
%%staves [1 2 3 4]
V: 1
V: 2
V: 3 clef=alto
V: 4 clef=bass
K: C
[V:1]z2 c [I:setbarnb1] |
[V:2]z2 z |
[V:3]z2 z |
[V:4]z2 z |
[V:1]B c e |
[V:2]z3 |
[V:3]z3 |
[V:4]z3 |
[V:1]G2 c |
[V:2]E E z |
[V:3]C C z |
[V:4]C C z |
[V:1]D2 A |
[V:2]A, A, z |
[V:3]F, F, z |
[V:4]F, F, z |
[V:1]G, >A G/F/ |
[V:2]G,3- |
[V:3]D,2 D |
[V:4]B,, B,, B,, |
[V:1]F E c |
[V:2]G, z2 |
[V:3]D C z |
[V:4]C,2 z |
[V:1]B c e |
[V:2]z3 |
[V:3]z z C |
[V:4]z z A, |
[V:1]F E A/c/ |
[V:2]z z A |
[V:3]B, C E |
[V:4]^G, A, C |
[V:1]e d g |
[V:2]c B d |
[V:3]A, B, G |
[V:4]^F, G, B, |
[V:1]^f g a |
[V:2]D2 e |
[V:3]A B A |
[V:4]C B, C |
[V:1]^g a c'/a/ |
[V:2]E2 e/c/ |
[V:3]B c A |
[V:4]D C A, |
[V:1]g2 a/^f/ |
[V:2]B2 c/A/ |
[V:3]d2 D |
[V:4]D2 D, |
[V:1]g z ^f//g3// |
[V:2]B D D |
[V:3]G B, B, |
[V:4]G, G, G, |
[V:1]^c/<d/ ^A/<B/ ^F//G3// |
[V:2]D D D |
[V:3]B, B, B, |
[V:4]G, G, G, |
[V:1]D2 G |
[V:2]D D D |
[V:3]B, B, B, |
[V:4]G, G, G, |
[V:1]A A/B/ c/d/ |
[V:2]^F F F |
[V:3]C C A, |
[V:4]G, G, G, |
[V:1]c B b |
[V:2]G2 g |
[V:3]D2 z |
[V:4]G,2 ^F,,//G,,3// |
[V:1]g d B |
[V:2]d B G |
[V:3]z3 |
[V:4]^A,,/<B,,/ ^C,/<D,/ ^F,//G,3// |
[V:1]G2 d/B/ |
[V:2]D2 z |
[V:3]z3 |
[V:4]B,2 z |
[V:1]A A/G/ A/B/ |
[V:2]^F3 |
[V:3]C3 |
[V:4]D,3 |
[V:1]G z d |
[V:2]G z2 |
[V:3]B, z2 |
[V:4]G, z2 |
[V:1]^c d f |
[V:2]z3 |
[V:3]z3 |
[V:4]z z G, |
[V:1]c B g- |
[V:2]z z G |
[V:3]z3 |
[V:4]_A, G, _E, |
[V:1]g _e f- |
[V:2]_A3 |
[V:3]z3 |
[V:4]C2 D, |
[V:1]f d _e- |
[V:2]G3 |
[V:3]z z C |
[V:4]B,2 C, |
[V:1]e d c- |
[V:2]^F3 |
[V:3]C D _E/C/ |
[V:4]_A,3 |
[V:1]c B G |
[V:2]G2 D |
[V:3]G2 B, |
[V:4]G,2 z |
[V:1]^F G D |
[V:2]_E D B, |
[V:3]C B, z |
[V:4]z z G,, |
[V:1]_E D G |
[V:2]C B, D |
[V:3]z z B, |
[V:4]^F,, G,, z |
[V:1]^F G D |
[V:2]_E D B, |
[V:3]C B, z |
[V:4]z z G,, |
[V:1]_E D F |
[V:2]C B, D |
[V:3]z3 |
[V:4]^F,, G,, z |
[V:1]E F z |
[V:2]^C D z |
[V:3]z z B, |
[V:4]z z G,, |
[V:1]z z c |
[V:2]z3 |
[V:3]C B, z |
[V:4]_A,, G,, z |
[V:1]B c e |
[V:2]z3 |
[V:3]z3 |
[V:4]z3 |
[V:1]G2 c |
[V:2]E E z |
[V:3]C C z |
[V:4]C C z |
[V:1]D2 A |
[V:2]A, A, z |
[V:3]F, F, z |
[V:4]F, F, z |
[V:1]G, >A G/F/ |
[V:2]G,3- |
[V:3]D,2 D |
[V:4]B,, B,, B,, |
[V:1]F E z |
[V:2]G, z E |
[V:3]D C z |
[V:4]C,2 C |
[V:1]z z c- |
[V:2]^D E G |
[V:3]z z C |
[V:4]B, C E |
[V:1]c B z |
[V:2]F2 F |
[V:3]D2 z |
[V:4]G,2 D |
[V:1]z z d- |
[V:2]E F A |
[V:3]z z D |
[V:4]^C D F |
[V:1]d ^c f |
[V:2]G2 d |
[V:3]E2 z |
[V:4]A,2 z |
[V:1]e f a |
[V:2]^c d f |
[V:3]z z F |
[V:4]z z D |
[V:1]_b a f |
[V:2]g f d |
[V:3]E F A |
[V:4]^C D F |
[V:1]a g c' |
[V:2]f e c |
[V:3]D E G |
[V:4]B, C E, |
[V:1]b c' d' |
[V:2]d e d |
[V:3]G,2 A |
[V:4]F, E, F, |
[V:1]^c' d' f'/d'/ |
[V:2]e f a/f/ |
[V:3]A,2 D, |
[V:4]G, F, D, |
[V:1]c'2 d'/b/ |
[V:2]e2 f/d/ |
[V:3]G,3 |
[V:4]G,3 |
[V:1]c' z b//c'3// |
[V:2]c E E |
[V:3]G, G, G, |
[V:4]C, C, C, |
[V:1]^f/<g/ ^d/<e/ B//c3// |
[V:2]E E E |
[V:3]G, G, G, |
[V:4]C, C, C, |
[V:1]G2 c |
[V:2]E E c |
[V:3]G, G, E |
[V:4]C, C, C, |
[V:1]d d/e/ f/g/ |
[V:2]B3 |
[V:3]F2 D |
[V:4]C, C, C, |
[V:1]f e e' |
[V:2]c z c' |
[V:3]G z2 |
[V:4]C,2 B,,//C,3// |
[V:1]c' g e |
[V:2]g e c |
[V:3]z3 |
[V:4]^D,/<E,/ ^F,/<G,/ B,//C3// |
[V:1]c2 g/e/ |
[V:2]G2 z |
[V:3]z3 |
[V:4]E2 z |
[V:1]d d/c/ d/e/ |
[V:2]B3 |
[V:3]F3 |
[V:4]G,,3 |
[V:1]c z E |
[V:2]c z2 |
[V:3]E z2 |
[V:4]C, z2 |
[V:1]c2 A |
[V:2]z3 |
[V:3]z3 |
[V:4]z3 |
[V:1]F2 D |
[V:2]z3 |
[V:3]z3 |
[V:4]z3 |
[V:1]B, B,/C/ D/E/ |
[V:2]^G,3 |
[V:3]E,3- |
[V:4]E,3 |
[V:1]C A, E |
[V:2]A, z2 |
[V:3]E, z2 |
[V:4]A,, z2 |
[V:1]c2 A |
[V:2]z3 |
[V:3]z3 |
[V:4]z3 |
[V:1]F2 E |
[V:2]z3 |
[V:3]z3 |
[V:4]z3 |
[V:1]^D D/E/ ^F/D/ |
[V:2]A,3 |
[V:3]^F,3 |
[V:4]B,,3 |
[V:1]E z E |
[V:2]^G, z2 |
[V:3]E, z2 |
[V:4]E,, z2 |
[V:1]c2 A |
[V:2]z3 |
[V:3]z3 |
[V:4]z3 |
[V:1]F2 D |
[V:2]z3 |
[V:3]z3 |
[V:4]z3 |
[V:1]_B, A,/^C/ E/G/ |
[V:2]G,2 G/E/ |
[V:3]E,2 A, |
[V:4]^C,3 |
[V:1]F D D |
[V:2]D z2 |
[V:3]A, z2 |
[V:4]D,2 z |
[V:1]d2 B |
[V:2]z3 |
[V:3]z3 |
[V:4]z z D,, |
[V:1]^G2 E |
[V:2]z3 |
[V:3]z z ^G, |
[V:4]D,3 |
[V:1]A2 E |
[V:2]z2 A, |
[V:3]E2 C |
[V:4]C,3 |
[V:1]C B, A, |
[V:2]^D3 |
[V:3]A, B, C/A,/ |
[V:4]F,,3 |
[V:1]^G, B, ^D |
[V:2]E3- |
[V:3]E z2 |
[V:4]E,,3- |
[V:1]E ^G B |
[V:2]E3- |
[V:3]z3 |
[V:4]E,,3- |
[V:1]e3- |
[V:2]E3- |
[V:3]E,3- |
[V:4]E,,3- |
[V:1]e2 E |
[V:2]E2 z |
[V:3]E,2 z |
[V:4]E,,2 z |
[V:1]^c2 A |
[V:2]E3 |
[V:3]^C3 |
[V:4]A,3 |
[V:1]E z E |
[V:2]z3 |
[V:3]z3 |
[V:4]z3 |
[V:1]d2 B |
[V:2]E3 |
[V:3]B,3 |
[V:4]^G,3 |
[V:1]E z E |
[V:2]z3 |
[V:3]z3 |
[V:4]z3 |
[V:1]e ^c A |
[V:2]^C E A |
[V:3]z3 |
[V:4]A,3 |
[V:1]^f d B |
[V:2]B, D ^F |
[V:3]z3 |
[V:4]D,3 |
[V:1]A3 |
[V:2]^C3 |
[V:3]z3 |
[V:4]E,3- |
[V:1]^G z E |
[V:2]B, z2 |
[V:3]z3 |
[V:4]E, D, B,, |
[V:1]^c2 A |
[V:2]E3- |
[V:3]z z E, |
[V:4]A,, z2 |
[V:1]E z E |
[V:2]E3- |
[V:3]^C2 A, |
[V:4]z3 |
[V:1]d2 B |
[V:2]E3- |
[V:3]E, z E, |
[V:4]^G,, z2 |
[V:1]E z E |
[V:2]E3 |
[V:3]D2 B, |
[V:4]z3 |
[V:1]e ^c A |
[V:2]A, E A |
[V:3]E, z2 |
[V:4]^C,,3 |
[V:1]^f d B |
[V:2]B, D ^F |
[V:3]z z ^F, |
[V:4]D,,3 |
[V:1]A2 B |
[V:2]^C2 D |
[V:3]E,2 ^G, |
[V:4]E,,3 |
[V:1]A z E |
[V:2]^C z2 |
[V:3]A, z2 |
[V:4]A,, z2 |
[V:1]c2 A |
[V:2]z3 |
[V:3]z3 |
[V:4]z3 |
[V:1]F2 D |
[V:2]z3 |
[V:3]z3 |
[V:4]z3 |
[V:1]B, B,/C/ D/E/ |
[V:2]^G,3 |
[V:3]E,3- |
[V:4]E,3 |
[V:1]C A, E |
[V:2]A, z2 |
[V:3]E, z2 |
[V:4]A,, z2 |
[V:1]c2 A |
[V:2]z3 |
[V:3]z3 |
[V:4]z3 |
[V:1]F2 A, |
[V:2]_B,2 A,- |
[V:3]F,2 ^F, |
[V:4]D,2 ^D, |
[V:1]C D B, |
[V:2]A, B, ^G, |
[V:3]E,3- |
[V:4]E,3 |
[V:1]A, z2 |]
[V:2]A, z2 |]
[V:3]E, z2 |]
[V:4]A,, z2 |]

